packages/core/src/svgs/tokens/mono/ABR.svg

<svg width="24" height="24" viewBox="0 0 24 24" fill="none" xmlns="http://www.w3.org/2000/svg">
<path d="M10.7624 3.25001C10.7624 2.63751 11.2625 2 11.8875 2C16.9374 2 21.6812 5.31875 22 10.6312V18.3875C22 19 21.375 19.4999 20.7499 19.4999C20.1249 19.4999 19.5 19 19.5 18.3875V10.6999C19.2249 6.53749 16.0624 4.5 11.9999 4.5C11.3749 4.5 10.7624 3.8625 10.7624 3.25001ZM13.2375 20.75C13.2375 21.3625 12.7374 21.9999 12.1125 21.9999C7.06249 21.9999 2.31875 18.6812 2 13.3687V5.6125C2 5 2.625 4.5 3.24999 4.5C3.87499 4.5 4.49998 5 4.49998 5.6125V13.3C4.77498 17.4625 7.93747 19.4999 11.9999 19.4999C12.625 19.4999 13.2375 20.1375 13.2375 20.75Z" fill="white"/>
<path d="M5.75 3.1375C5.75 2.5125 6.24999 2 6.86874 2C7.48124 2 7.98123 2.50624 7.98123 3.1375V7.21249C8.89257 6.44736 10.0034 5.95828 11.1831 5.80277C12.3628 5.64724 13.5624 5.83173 14.641 6.33455C15.7194 6.83735 16.6319 7.63759 17.2712 8.64118C17.9106 9.64482 18.2501 10.81 18.2499 12V20.8624C18.2499 21.4875 17.75 21.9999 17.1312 21.9999C16.9835 21.9983 16.8375 21.9676 16.7016 21.9095C16.5657 21.8515 16.4426 21.7672 16.3394 21.6616C16.2361 21.556 16.1546 21.431 16.0996 21.2939C16.0445 21.1569 16.0171 21.0102 16.0187 20.8624V16.7874C15.1074 17.5526 13.9966 18.0416 12.8168 18.1972C11.6371 18.3526 10.4375 18.1682 9.35907 17.6653C8.28053 17.1627 7.368 16.3623 6.72868 15.3587C6.08937 14.3552 5.74984 13.1899 5.75 12V3.1375ZM7.98123 12C7.98455 13.0647 8.41027 14.0847 9.16497 14.8357C9.91951 15.5869 10.9415 16.0078 12.0062 16.0062C13.071 16.0046 14.0915 15.5804 14.8438 14.827C15.5962 14.0735 16.0187 13.0522 16.0187 11.9875C16.0187 10.9228 15.5962 9.90149 14.8438 9.14797C14.0915 8.39452 13.071 7.9704 12.0062 7.96873C10.9415 7.96709 9.91951 8.38803 9.16497 9.13922C8.41027 9.89026 7.98455 10.9102 7.98123 11.9749V12Z" fill="white"/>
</svg>

<svg xmlns="http://www.w3.org/2000/svg" width="24" height="24" fill="none" viewBox="0 0 24 24">
    <path fill="#fff" d="M10.762 3.25c0-.612.5-1.25 1.125-1.25 5.05 0 9.794 3.319 10.113 8.631v7.756c0 .613-.625 1.113-1.25 1.113s-1.25-.5-1.25-1.113V10.7c-.275-4.163-3.438-6.2-7.5-6.2-.625 0-1.238-.638-1.238-1.25m2.476 17.5c0 .613-.5 1.25-1.125 1.25C7.063 22 2.319 18.68 2 13.369V5.613C2 5 2.625 4.5 3.25 4.5S4.5 5 4.5 5.612V13.3c.275 4.162 3.437 6.2 7.5 6.2.625 0 1.238.637 1.238 1.25"/>
    <path fill="#fff" d="M5.75 3.138C5.75 2.513 6.25 2 6.869 2c.612 0 1.112.506 1.112 1.138v4.074A6.25 6.25 0 0 1 18.25 12v8.862c0 .626-.5 1.138-1.119 1.138a1.124 1.124 0 0 1-1.112-1.138v-4.075A6.25 6.25 0 0 1 5.75 12zM7.981 12a4.018 4.018 0 1 0 0-.025z"/>
</svg>
